X:1
T:Title
%%score { 1 | ( 2 3 ) }
L:1/8
M:4/4
K:E
V:1 treble nm="Grand Piano"
V:2 bass 
V:3 bass 
V:1
 z4 z2 E2 | E4 E2 G2 | B4 B2 [GB]2 | [FB]4 [Fe]2 [Fe]2 | [Fd]6 [Fd]2 | [Ge]4 [Ae]2 [Ac]2 | %6
 [GB]4 [EG]2 [EG]2 | [DF]2 [EG]2 [FA]2 [GB]2 | [EG]8 | [DF]4 [DF][FA][EG][GB] | [FA]4 [FA]2 [EG]F | %11
 G4 GB[FA]c | [EGB]6 [B,EB]2 | [B,DA]4 [B,FA]2 [B,FA]2 | [EG]2 [EGB]2 [Be]2 f2 | e4 [Fd]2 [Ad]2 | %16
 [Ge]8 |[M:1/4] E2 |[M:4/4] E4 E2 G2 | B4 B2 [GB]2 | [FB]4 [Fe]2 [Fe]2 | [Fd]6 [Fd]2 | %22
 [Ge]4 [Ae]2 [Ac]2 | [GB]4 [EG]2 [EG]2 | [DF]2 [EG]2 [FA]2 [GB]2 | [EG]8 | [DF]4 [DF][FA][EG][GB] | %27
 [FA]4 [FA]2 [EG]F | G4 GB[FA]c | [EGB]6 [B,EB]2 | [B,DA]4 [B,FA]2 [B,FA]2 | %31
 [EG]2 [EGB]2 [Be]2 f2 | e4 [Fd]2 [Ad]2 | [Ge]8 |] %34
V:2
 z4 z2 E,2 | E,4 E,2 G,2 | B,4 [G,B,G]2 [E,B,]2 | [D,B,]4 [C,^A,]2 [C,A,]2 | [B,,B,]6 [B,,B,]2 | %5
 [E,B,]4 [E,C]2 [E,E]2 | [E,E]4 [E,B,]2 [E,B,]2 | [B,,B,]4 [B,,B,]2 [B,,B,]2 | [E,B,]8 | %9
 [B,,B,]4 [B,,B,]2 [E,B,]2 | [B,,B,]4 [B,,B,]2 z D | [E,B,E]4 E[K:treble]G z A | E,6 G,2 | %13
 F,4 D,2 D,2 | [E,B,]2 z2[K:treble] [G,E]2 [A,CA]2 | [B,G]4[K:bass] [B,,B,]2 [B,,B,]2 | [E,B,]8 | %17
[M:1/4] E,2 |[M:4/4] E,4 E,2 G,2 | B,4 [G,B,G]2 [E,B,]2 | [D,B,]4 [C,^A,]2 [C,A,]2 | %21
 [B,,B,]6 [B,,B,]2 | [E,B,]4 [E,C]2 [E,E]2 | [E,E]4 [E,B,]2 [E,B,]2 | [B,,B,]4 [B,,B,]2 [B,,B,]2 | %25
 [E,B,]8 | [B,,B,]4 [B,,B,]2 [E,B,]2 | [B,,B,]4 [B,,B,]2 z D | [E,B,E]4 E[K:treble]G z A | %29
 E,6 G,2 | F,4 D,2 D,2 | [E,B,]2 z2[K:treble] [G,E]2 [A,CA]2 | [B,G]4[K:bass] [B,,B,]2 [B,,B,]2 | %33
 [E,B,]8 |] %34
V:3
 x8 | x8 | x8 | x8 | x8 | x8 | x8 | x8 | x8 | x8 | z4 z2 [B,,B,]2 | z4 [E,B,]2[K:treble] [E,E]2 | %12
 x8 | x8 | x4[K:treble] x4 | x4[K:bass] x4 | x8 |[M:1/4] x2 |[M:4/4] x8 | x8 | x8 | x8 | x8 | x8 | %24
 x8 | x8 | x8 | z4 z2 [B,,B,]2 | z4 [E,B,]2[K:treble] [E,E]2 | x8 | x8 | x4[K:treble] x4 | %32
 x4[K:bass] x4 | x8 |] %34

